SVG_Azure_All/Database Migration Project.svg

<?xml version="1.0" encoding="UTF-8" standalone="no"?>
<!-- Generated by Microsoft Visio, SVG Export Database Migration Project.svg Page-1 -->

<svg
   xmlns:dc="http://purl.org/dc/elements/1.1/"
   xmlns:cc="http://creativecommons.org/ns#"
   xmlns:rdf="http://www.w3.org/1999/02/22-rdf-syntax-ns#"
   xmlns:svg="http://www.w3.org/2000/svg"
   xmlns="http://www.w3.org/2000/svg"
   xmlns:sodipodi="http://sodipodi.sourceforge.net/DTD/sodipodi-0.dtd"
   xmlns:inkscape="http://www.inkscape.org/namespaces/inkscape"
   width="0.78735793in"
   height="0.74802256in"
   viewBox="0 0 56.690001 53.857585"
   xml:space="preserve"
   class="st7"
   version="1.1"
   id="svg74"
   sodipodi:docname="Database Migration Project.svg"
   style="font-size:12px;overflow:visible;color-interpolation-filters:sRGB;fill:none;fill-rule:evenodd;stroke-linecap:square;stroke-miterlimit:3"
   inkscape:version="0.92.5 (2060ec1f9f, 2020-04-08)"><metadata
   id="metadata80"><rdf:RDF><cc:Work
       rdf:about=""><dc:format>image/svg+xml</dc:format><dc:type
         rdf:resource="http://purl.org/dc/dcmitype/StillImage" /></cc:Work></rdf:RDF></metadata><defs
   id="defs78" /><sodipodi:namedview
   pagecolor="#ffffff"
   bordercolor="#666666"
   borderopacity="1"
   objecttolerance="10"
   gridtolerance="10"
   guidetolerance="10"
   inkscape:pageopacity="0"
   inkscape:pageshadow="2"
   inkscape:window-width="640"
   inkscape:window-height="480"
   id="namedview76"
   showgrid="false"
   inkscape:zoom="1.5612034"
   inkscape:cx="37.795179"
   inkscape:cy="30.222941"
   inkscape:window-x="0"
   inkscape:window-y="0"
   inkscape:window-maximized="0"
   inkscape:current-layer="svg74" />
	<style
   type="text/css"
   id="style2">
	<![CDATA[
		.st1 {fill:#0072c6;stroke:none;stroke-linecap:butt;stroke-width:25.5}
		.st2 {fill:#3c9be4;stroke:none;stroke-linecap:butt;stroke-width:25.5}
		.st3 {fill:#ffffff;fill-opacity:0.25;stroke:none;stroke-linecap:butt;stroke-width:25.5}
		.st4 {fill:#b8d432;stroke:none;stroke-linecap:butt;stroke-width:25.5}
		.st5 {fill:#a0a1a2;stroke:none;stroke-linecap:butt;stroke-width:25.5}
		.st6 {fill:#ecf0f1;fill-opacity:0.2;stroke:none;stroke-linecap:butt;stroke-width:25.5}
		.st7 {fill:none;fill-rule:evenodd;font-size:12px;overflow:visible;stroke-linecap:square;stroke-miterlimit:3}
	]]>
	</style>

	<g
   id="g72"
   transform="translate(-25.5,-25.496726)">
		<title
   id="title4">Page-1</title>
		<g
   id="group5789-1"
   transform="translate(25.5,-34.0157)">
			<title
   id="title6">Database Migration Project</title>
			<g
   id="group5790-2">
				<title
   id="title8">Sheet.5790</title>
				<g
   id="shape5791-3"
   transform="translate(7.08661,-27.7978)">
					<title
   id="title10">Sheet.5791</title>
					<path
   d="m 37.59,103.71 h -0.6 c 0.34,-1.08 0.43,-2.24 0.43,-3.41 0.08,-7.16 -5.87,-12.99 -13.1,-12.99 a 13.0087,12.7569 -180 0 0 -12.41,8.83 8.25118,8.09148 -180 0 0 -2.9,-0.5 C 4,95.64 0,99.64 0,104.55 a 8.93858,8.76558 -180 0 0 8.93,8.82 h 9.97 v -6.95 h -5.91 l 9.45,-9.26 9.45,9.26 h -5.91 v 6.95 h 11.95 c 2.63,-0.24 4.59,-2.33 4.59,-4.83 a 4.93465,4.83914 -180 0 0 -4.93,-4.83 z"
   class="st1"
   id="path12"
   inkscape:connector-curvature="0"
   style="fill:#0072c6;stroke:none;stroke-width:25.5;stroke-linecap:butt" />
				</g>
				<g
   id="shape5792-5"
   transform="translate(4.72441,-4.63297)">
					<title
   id="title15">Sheet.5792</title>
					<path
   d="m 0,100.63 v 9.27 c 0,1.92 3.17,3.47 7.09,3.47 3.91,0 7.08,-1.55 7.08,-3.47 v -9.27 z"
   class="st2"
   id="path17"
   inkscape:connector-curvature="0"
   style="fill:#3c9be4;stroke:none;stroke-width:25.5;stroke-linecap:butt" />
				</g>
				<g
   id="shape5793-7"
   transform="translate(4.72441,-4.63297)">
					<title
   id="title20">Sheet.5793</title>
					<path
   d="M 7.09,100.63 H 0 v 9.27 c 0,1.92 3.17,3.47 7.09,3.47 z"
   class="st3"
   id="path22"
   inkscape:connector-curvature="0"
   style="fill:#ffffff;fill-opacity:0.25;stroke:none;stroke-width:25.5;stroke-linecap:butt" />
				</g>
				<g
   id="shape5794-9"
   transform="translate(4.72441,-13.8989)">
					<title
   id="title25">Sheet.5794</title>
					<ellipse
   cx="7.0866098"
   cy="109.899"
   rx="7.0866098"
   ry="3.47473"
   class="st4"
   id="ellipse27"
   style="fill:#b8d432;stroke:none;stroke-width:25.5;stroke-linecap:butt" />
				</g>
				<g
   id="shape5795-11">
					<title
   id="title30">Sheet.5795</title>
					<path
   d="M 7.09,113.37 H 0 V 87.89 h 7.09 v 2.32 H 2.36 v 20.85 h 4.73 z m 42.52,0 h 7.08 V 87.89 h -7.08 v 2.32 h 4.72 v 20.85 h -4.72 z"
   class="st5"
   id="path32"
   inkscape:connector-curvature="0"
   style="fill:#a0a1a2;stroke:none;stroke-width:25.5;stroke-linecap:butt" />
				</g>
				<g
   id="shape5796-13"
   transform="translate(7.08661,-28.7128)">
					<title
   id="title35">Sheet.5796</title>
					<path
   d="m 3.54,108.35 a 9.59291,9.40724 0 0 1 14.13,-8.29 13.2425,12.9862 0 0 1 18.32,-4.8 C 33.81,91.09 29.38,88.23 24.32,88.23 a 13.0087,12.7569 -180 0 0 -12.41,8.83 8.25118,8.09148 -180 0 0 -2.9,-0.51 c -5.01,0 -9.01,4 -9.01,8.91 0,3.52 2.06,6.49 5.04,7.91 a 9.4937,9.30995 0 0 1 -1.5,-5.02 z"
   class="st6"
   id="path37"
   inkscape:connector-curvature="0"
   style="fill:#ecf0f1;fill-opacity:0.2;stroke:none;stroke-width:25.5;stroke-linecap:butt" />
				</g>
				<g
   id="shape5797-15"
   transform="translate(21.2598,-4.63297)">
					<title
   id="title40">Sheet.5797</title>
					<path
   d="m 0,100.63 v 9.27 c 0,1.92 3.17,3.47 7.09,3.47 3.91,0 7.08,-1.55 7.08,-3.47 v -9.27 z"
   class="st2"
   id="path42"
   inkscape:connector-curvature="0"
   style="fill:#3c9be4;stroke:none;stroke-width:25.5;stroke-linecap:butt" />
				</g>
				<g
   id="shape5798-17"
   transform="translate(21.2598,-4.63297)">
					<title
   id="title45">Sheet.5798</title>
					<path
   d="M 7.09,100.63 H 0 v 9.27 c 0,1.92 3.17,3.47 7.09,3.47 z"
   class="st3"
   id="path47"
   inkscape:connector-curvature="0"
   style="fill:#ffffff;fill-opacity:0.25;stroke:none;stroke-width:25.5;stroke-linecap:butt" />
				</g>
				<g
   id="shape5799-19"
   transform="translate(21.2598,-13.8989)">
					<title
   id="title50">Sheet.5799</title>
					<ellipse
   cx="7.0866098"
   cy="109.899"
   rx="7.0866098"
   ry="3.47473"
   class="st4"
   id="ellipse52"
   style="fill:#b8d432;stroke:none;stroke-width:25.5;stroke-linecap:butt" />
				</g>
				<g
   id="shape5800-21"
   transform="translate(37.7953,-4.63297)">
					<title
   id="title55">Sheet.5800</title>
					<path
   d="m 0,100.63 v 9.27 c 0,1.92 3.17,3.47 7.09,3.47 3.91,0 7.08,-1.55 7.08,-3.47 v -9.27 z"
   class="st2"
   id="path57"
   inkscape:connector-curvature="0"
   style="fill:#3c9be4;stroke:none;stroke-width:25.5;stroke-linecap:butt" />
				</g>
				<g
   id="shape5801-23"
   transform="translate(37.7953,-4.63297)">
					<title
   id="title60">Sheet.5801</title>
					<path
   d="M 7.09,100.63 H 0 v 9.27 c 0,1.92 3.17,3.47 7.09,3.47 z"
   class="st3"
   id="path62"
   inkscape:connector-curvature="0"
   style="fill:#ffffff;fill-opacity:0.25;stroke:none;stroke-width:25.5;stroke-linecap:butt" />
				</g>
				<g
   id="shape5802-25"
   transform="translate(37.7953,-13.8989)">
					<title
   id="title65">Sheet.5802</title>
					<ellipse
   cx="7.0866098"
   cy="109.899"
   rx="7.0866098"
   ry="3.47473"
   class="st4"
   id="ellipse67"
   style="fill:#b8d432;stroke:none;stroke-width:25.5;stroke-linecap:butt" />
				</g>
			</g>
		</g>
	</g>
</svg>

<?xml version="1.0" encoding="UTF-8" standalone="no"?>
<!DOCTYPE svg PUBLIC "-//W3C//DTD SVG 1.1//EN" "http://www.w3.org/Graphics/SVG/1.1/DTD/svg11.dtd">
<!-- Generated by Microsoft Visio, SVG Export Database Migration Project.svg Page-1 -->
<svg xmlns="http://www.w3.org/2000/svg" xmlns:xlink="http://www.w3.org/1999/xlink" xmlns:ev="http://www.w3.org/2001/xml-events"
		width="1.49573in" height="1.57464in" viewBox="0 0 107.693 113.374" xml:space="preserve" color-interpolation-filters="sRGB"
		class="st7">
	<style type="text/css">
	<![CDATA[
		.st1 {fill:#0072c6;stroke:none;stroke-linecap:butt;stroke-width:25.5}
		.st2 {fill:#3c9be4;stroke:none;stroke-linecap:butt;stroke-width:25.5}
		.st3 {fill:#ffffff;fill-opacity:0.25;stroke:none;stroke-linecap:butt;stroke-width:25.5}
		.st4 {fill:#b8d432;stroke:none;stroke-linecap:butt;stroke-width:25.5}
		.st5 {fill:#a0a1a2;stroke:none;stroke-linecap:butt;stroke-width:25.5}
		.st6 {fill:#ecf0f1;fill-opacity:0.2;stroke:none;stroke-linecap:butt;stroke-width:25.5}
		.st7 {fill:none;fill-rule:evenodd;font-size:12px;overflow:visible;stroke-linecap:square;stroke-miterlimit:3}
	]]>
	</style>

	<g>
		<title>Page-1</title>
		<g id="group5670-1" transform="translate(25.5,-34.0157)">
			<title>Database Migration Project</title>
			<g id="group5671-2">
				<title>Sheet.5671</title>
				<g id="shape5672-3" transform="translate(7.08661,-27.7978)">
					<title>Sheet.5672</title>
					<path d="M37.59 103.71 L36.99 103.71 C37.33 102.63 37.42 101.47 37.42 100.3 C37.5 93.14 31.55 87.31 24.32 87.31
								 A13.0087 12.7569 -180 0 0 11.91 96.14 A8.25118 8.09148 -180 0 0 9.01 95.64 C4 95.64 0 99.64 0 104.55
								 A8.93858 8.76558 -180 0 0 8.93 113.37 L18.9 113.37 L18.9 106.42 L12.99 106.42 L22.44 97.16 L31.89
								 106.42 L25.98 106.42 L25.98 113.37 L37.93 113.37 C40.56 113.13 42.52 111.04 42.52 108.54 A4.93465
								 4.83914 -180 0 0 37.59 103.71 Z" class="st1"/>
				</g>
				<g id="shape5673-5" transform="translate(4.72441,-4.63297)">
					<title>Sheet.5673</title>
					<path d="M0 100.63 L0 109.9 C0 111.82 3.17 113.37 7.09 113.37 C11 113.37 14.17 111.82 14.17 109.9 L14.17 100.63
								 L0 100.63 Z" class="st2"/>
				</g>
				<g id="shape5674-7" transform="translate(4.72441,-4.63297)">
					<title>Sheet.5674</title>
					<path d="M7.09 100.63 L0 100.63 L0 109.9 C0 111.82 3.17 113.37 7.09 113.37 L7.09 100.63 Z" class="st3"/>
				</g>
				<g id="shape5675-9" transform="translate(4.72441,-13.8989)">
					<title>Sheet.5675</title>
					<ellipse cx="7.08661" cy="109.899" rx="7.08661" ry="3.47473" class="st4"/>
				</g>
				<g id="shape5676-11">
					<title>Sheet.5676</title>
					<path d="M7.09 113.37 L0 113.37 L0 87.89 L7.09 87.89 L7.09 90.21 L2.36 90.21 L2.36 111.06 L7.09 111.06 L7.09
								 113.37 ZM49.61 113.37 L56.69 113.37 L56.69 87.89 L49.61 87.89 L49.61 90.21 L54.33 90.21 L54.33 111.06
								 L49.61 111.06 L49.61 113.37 Z" class="st5"/>
				</g>
				<g id="shape5677-13" transform="translate(7.08661,-28.7128)">
					<title>Sheet.5677</title>
					<path d="M3.54 108.35 A9.59291 9.40724 0 0 1 17.67 100.06 A13.2425 12.9862 0 0 1 35.99 95.26 C33.81 91.09 29.38
								 88.23 24.32 88.23 A13.0087 12.7569 -180 0 0 11.91 97.06 A8.25118 8.09148 -180 0 0 9.01 96.55 C4
								 96.55 0 100.55 0 105.46 C0 108.98 2.06 111.95 5.04 113.37 A9.4937 9.30995 0 0 1 3.54 108.35 Z"
							class="st6"/>
				</g>
				<g id="shape5678-15" transform="translate(21.2598,-4.63297)">
					<title>Sheet.5678</title>
					<path d="M0 100.63 L0 109.9 C0 111.82 3.17 113.37 7.09 113.37 C11 113.37 14.17 111.82 14.17 109.9 L14.17 100.63
								 L0 100.63 Z" class="st2"/>
				</g>
				<g id="shape5679-17" transform="translate(21.2598,-4.63297)">
					<title>Sheet.5679</title>
					<path d="M7.09 100.63 L0 100.63 L0 109.9 C0 111.82 3.17 113.37 7.09 113.37 L7.09 100.63 Z" class="st3"/>
				</g>
				<g id="shape5680-19" transform="translate(21.2598,-13.8989)">
					<title>Sheet.5680</title>
					<ellipse cx="7.08661" cy="109.899" rx="7.08661" ry="3.47473" class="st4"/>
				</g>
				<g id="shape5681-21" transform="translate(37.7953,-4.63297)">
					<title>Sheet.5681</title>
					<path d="M0 100.63 L0 109.9 C0 111.82 3.17 113.37 7.09 113.37 C11 113.37 14.17 111.82 14.17 109.9 L14.17 100.63
								 L0 100.63 Z" class="st2"/>
				</g>
				<g id="shape5682-23" transform="translate(37.7953,-4.63297)">
					<title>Sheet.5682</title>
					<path d="M7.09 100.63 L0 100.63 L0 109.9 C0 111.82 3.17 113.37 7.09 113.37 L7.09 100.63 Z" class="st3"/>
				</g>
				<g id="shape5683-25" transform="translate(37.7953,-13.8989)">
					<title>Sheet.5683</title>
					<ellipse cx="7.08661" cy="109.899" rx="7.08661" ry="3.47473" class="st4"/>
				</g>
			</g>
		</g>
	</g>
</svg>
